assets/svg/mastercard.svg

<?xml version="1.0" encoding="utf-8"?><!-- Uploaded to: SVG Repo, www.svgrepo.com, Generator: SVG Repo Mixer Tools -->
<svg width="800px" height="800px" viewBox="0 -11 70 70" fill="none" xmlns="http://www.w3.org/2000/svg">
<rect x="0.5" y="0.5" width="69" height="47" rx="5.5" fill="white" stroke="#D9D9D9"/>
<path fill-rule="evenodd" clip-rule="evenodd" d="M35.3945 34.7619C33.0114 36.8184 29.92 38.0599 26.5421 38.0599C19.0047 38.0599 12.8945 31.8788 12.8945 24.254C12.8945 16.6291 19.0047 10.448 26.5421 10.448C29.92 10.448 33.0114 11.6895 35.3945 13.7461C37.7777 11.6895 40.869 10.448 44.247 10.448C51.7843 10.448 57.8945 16.6291 57.8945 24.254C57.8945 31.8788 51.7843 38.0599 44.247 38.0599C40.869 38.0599 37.7777 36.8184 35.3945 34.7619Z" fill="#ED0006"/>
<path fill-rule="evenodd" clip-rule="evenodd" d="M35.3945 34.7619C38.3289 32.2296 40.1896 28.4616 40.1896 24.254C40.1896 20.0463 38.3289 16.2783 35.3945 13.7461C37.7777 11.6895 40.869 10.448 44.247 10.448C51.7843 10.448 57.8945 16.6291 57.8945 24.254C57.8945 31.8788 51.7843 38.0599 44.247 38.0599C40.869 38.0599 37.7777 36.8184 35.3945 34.7619Z" fill="#F9A000"/>
<path fill-rule="evenodd" clip-rule="evenodd" d="M35.3946 13.7461C38.329 16.2784 40.1897 20.0463 40.1897 24.254C40.1897 28.4616 38.329 32.2295 35.3946 34.7618C32.4603 32.2295 30.5996 28.4616 30.5996 24.254C30.5996 20.0463 32.4603 16.2784 35.3946 13.7461Z" fill="#FF5E00"/>
</svg>

<svg xmlns="http://www.w3.org/2000/svg" width="800" height="800" fill="none" viewBox="0 -11 70 70">
    <rect width="69" height="47" x=".5" y=".5" fill="#fff" stroke="#d9d9d9" rx="5.5" />
    <path fill="#ed0006" fill-rule="evenodd"
        d="M35.395 34.762a13.5 13.5 0 0 1-8.853 3.298c-7.537 0-13.647-6.181-13.647-13.806s6.11-13.806 13.647-13.806c3.378 0 6.47 1.242 8.853 3.298a13.5 13.5 0 0 1 8.852-3.298c7.537 0 13.648 6.181 13.648 13.806S51.785 38.06 44.247 38.06c-3.378 0-6.47-1.242-8.852-3.298"
        clip-rule="evenodd" />
    <path fill="#f9a000" fill-rule="evenodd"
        d="M35.395 34.762a13.84 13.84 0 0 0 4.795-10.508 13.84 13.84 0 0 0-4.795-10.508 13.5 13.5 0 0 1 8.852-3.298c7.537 0 13.648 6.181 13.648 13.806S51.785 38.06 44.247 38.06c-3.378 0-6.47-1.242-8.852-3.298"
        clip-rule="evenodd" />
    <path fill="#ff5e00" fill-rule="evenodd"
        d="M35.395 13.746a13.84 13.84 0 0 1 4.795 10.508c0 4.208-1.861 7.976-4.795 10.508A13.84 13.84 0 0 1 30.6 24.254c0-4.208 1.86-7.976 4.795-10.508"
        clip-rule="evenodd" />
</svg>
